symbols/web/looks_two/materialsymbolssharp/looks_two_wght700_48px.svg

<svg xmlns="http://www.w3.org/2000/svg" height="48" width="48"><path d="M17.7 34.15h12.6V30.6h-9.05v-4.9h9.05V13.85H17.7v3.55h9.05v4.7H17.7Zm-12.95 9.1V4.7H43.3v38.55Zm4.7-4.7h29.1V9.45H9.45Zm0 0V9.45v29.1Z"/></svg>

<svg xmlns="http://www.w3.org/2000/svg" height="48" width="48"><path d="M17.7 34.15H30.3V30.6H21.25V25.7H30.3V13.85H17.7V17.4H26.75V22.1H17.7ZM4.75 43.25V4.7H43.3V43.25ZM9.45 38.55H38.55V9.45H9.45ZM9.45 38.55V9.45V38.55Z"/></svg>
